X:71
T:Miss Gunnings Delight. VWMLa.071
%%VWML:Anon2-3049-p42-0
F:http://www.vwml.org/record/Anon2/3049/p42
S:Anon. MS, late 18thC, Vaughan Williams Mem. Library
O:England;Yorkshire
Z:vmp/efdss.Simon Wilson. Reviewed PJH 2008.
M:C
L:1/8
Q:2/4=80
K:A
{d}c2BA (G/A/B) ED|CEAc BE!turn!E2|\
{d}c2BA (G/A/B) Ed|ceEd cAA2:|
|:(aA)(aA) (aA)A2|GBcA GBcA|\
(aA)(aA) (aA)A2|ceEd cAA2:|
|:ce!turn!fe ce!turn!fe|fedc BE!turn!E2|\
ce!turn!fe ce!turn!fe|fefg aA3:|
T:Vertigo. VWMLa.072
R:Cotillion
S:Anon. MS, late 18thC, Vaughan Williams Mem. Library
N:Sorry, but it doesn't play in PlayQabc. WS.
O:England;Yorkshire
Z:vmp/efdss.Simon Wilson. Reviewed PJH 2008.
M:6/8
L:1/8
Q:3/8=80
K:G
[B,2G2][B,G][A,2F2][A,F]|\
[B,2G2][B,2G2]A2B|c>dB ABG|F2G A3:|
d>ed D2d|D2d- dcB|c>dc A,2c|A,2c- cBA|
[B,2G2][B,G][A,2F2][A,F]|GFG A2B|\
cde dBG|cAF G3:|
